X: 4010
M: C|
L: 1/8
K: A
(ucd) |\
e2ee e2fg | bagf e2(ed) |\
[1 cecA cecA | cBBB B2 :|\
[2 cecA BdBG | A2c2 A2 |]\
E2 |\
(BE)EE E2EG |\
cABc dBcd | ecde gfed |\
cecA BdBG | A2c2A2 |]


